X:526
T:Never Love Thee More
C:John Playford: Dancing Master, 1686
S:Colin Hume's website,  colinhume.com  - chords can also be printed below the stave.
Q:3/4=80
%%MIDI program 74
%%MIDI gchord c2cc2c
%%MIDI chordprog 48   String Ensemble 1
%%MIDI bassprog 48    String Ensemble 1
%%MIDI chordvol 60
L:1/4
M:6/4
K:G
P:A
"G"D3/E/D "G/F#"G2A | "Em"B3/c/B "G/D"A2G | "G"dB2 "G7"A2G | "C"E3-E2E |\
"G"D3/E/D "G/F#"G2A | "Em"B3/c/B "G/D"A2G | "G"dB2 "G7"c2d | "C"e3-e2e |
P:B
"G"dB2 "G7"A2G | "C"c2d "Am"e3/d/c | "G"dBc "Em"A2G | "C"E3-"Am"E2E |\
"G"D3/E/D "G/F#"G3/A/G | "Em"Bcd "C"e3/d/c | "G/D"dBc "D7"A2G | "G"G6 |]

